X: 45
T:Harvest Home
N: page 15
N: heptatonic
R:Hornpipe
C:Kevin Briggs
S:Nottingham Music Database
M:4/4
L:1/8
K:D
AF|"D"DAFA DAFA|"G"defe dcBA|"A7"eAfA gAfA|\
"A7"(3efe (3dcB (3ABA (3GFE| "D"DAFA DAFA|
"G"defe dcBA|"A7"eAfA gecA|"D"d2f2 d2:| cd|\
"A7"eA ~A2 "D"fA ~A2|"A7"gA fA "D"fA ~A2|
"A"eAfA gAfA| "A7" (3efe  (3dcB "G" (3ABA  (3GFE|\
 "D"DAFA DAFA|defe dcBA| "A7"eAfA gecA|"D"d2f2 d2:|
